X: 95
T:Madame Bonaparte
N: page 32
N: heptatonic
M:4/4
L:1/8
R:Hornpipe
K:G
dc|"G"B2BA BdBG|"C"c2{d}cB "Am"cecA|"G"GA (3Bcd "Em"gfge|\
"D7"d2df dcBA| "G"B2BA BdBG|
"C"cBcd "Em"ef (3gfe|"G"dBGB "D7"cAFA|"G"G2{A}GF G2::\
"G"(3DEF|GA (3Bcd "Em"{ga}gfge|
"D7"d2de dcBA|"G"GA (3Bcd "Em"{ga}gfge|\
"D7"(3ded ^ce d2d=c| "G"BdBG (3Bcd BG|"Am"cecA cecA|
"G"BdBG (3Bcd BG|"D7"FAFD FAFD| "G"BdBG BdBG|\
"C"{cd}cBcd ef (3gfe|"G"dBGB "D7"cAFA|"G"G2GF G2:|
